!!!COM: Bach, Johann Sebastian
!!!OTA: Das wohltemperirte Clavier
!!!OPR: Das wohltemperierte Klavier
!!!OTL: Fuga 18, Vol. 2
!!!XEN: The Well-Tempered Clavier, Volume 2, Fugue 18.
!!!ONB: G-sharp minor, 3-part
!!!SCT: BWV 887b
!!!YEC: Copyright 1994, David Huron
!!!YEM: Rights to all derivative electronic formats reserved.
**kern	**kern	**kern
*staff2	*staff1	*staff1
*clefF4	*clefG2	*clefG2
*k[f#c#g#d#a#]	*k[f#c#g#d#a#]	*k[f#c#g#d#a#]
*M6/8	*M6/8	*M6/8
*g#:	*g#:	*g#:
*MM99	*MM99	*MM99
=1	=1	=1
2.r	2.r	8g#
.	.	8a#
.	.	8b
.	.	8a#
.	.	8dd#
.	.	8d#
=2	=2	=2
2.r	2.r	8g#
.	.	8b
.	.	8a#
.	.	8b
.	.	8a#
.	.	8g#
=3	=3	=3
2.r	2.r	8a#
.	.	8b
.	.	8cc#
.	.	8b
.	.	8ee
.	.	8g#
=4	=4	=4
2.r	2.r	8a#
.	.	8cc#
.	.	8b
.	.	8cc#
.	.	8b
.	.	8a#
=5	=5	=5
2.r	8d#	4b
.	8e#	.
.	8f#	8b#
.	8e#	[4.cc#
.	8a#	.
.	8A#	.
=6	=6	=6
2.r	8d#	4.cc#]
.	8f#	.
.	8e#	.
.	8f#	4.b#
.	8e#	.
.	8d#	.
=7	=7	=7
2.r	8e#	4cc#
.	8f#	.
.	8g#	8cc##
.	8f#	[4.dd#
.	8b	.
.	8d#	.
=8	=8	=8
2.r	8e#	4.dd#]
.	8g#	.
.	8f#	.
.	8g#	4.cc##
.	8f#	.
.	8e#	.
=9	=9	=9
2.r	4f#	8dd#
.	.	[4cc#
.	8f##	.
.	4g#	8cc#]
.	.	8a#
.	8f#	8b#
=10	=10	=10
2.r	4e	8cc#
.	.	[4bn
.	8e#	.
.	4f#	8b]
.	.	8g#
.	8en	8a#
=11	=11	=11
2.r	8d#	[4.b
.	8g#	.
.	8G#	.
.	[4.c#	8b]
.	.	8a#
.	.	8cc#
=12	=12	=12
2.r	4c#]	8f##
.	.	8dd#
.	8B	8g#
.	8A#	[4.cc#
.	8g#	.
.	8f##	.
=13	=13	=13
8G#	[4.g#	8cc#]
8A#	.	8ee
8B	.	8dd#
8A#	4g#]	8cc#
8d#	.	8b
8D#	8f##	8a#
=14	=14	=14
8G#	4g#	4b
8B	.	.
8A#	8r	8dd#
8B	8r	[4.gg#
8A#	8r	.
8G#	8b	.
=15	=15	=15
8A#	8cc#	4gg#]
8B	8dd#	.
8c#	8ee	8ff##
8B	8dd#	4gg#
8e	8cc#	.
8G#	[8b	8bb
=16	=16	=16
8A#	8b]	4cc#
8c#	8a#	.
8B	8g#	8dd#
8c#	[4.f#	8ee
8B	.	8dd#
8A#	.	8cc#
=17	=17	=17
4B	8f#]	4.dd#
.	8f#	.
8G#	[8b	.
4E#	8b]	4.cc#
.	8g#	.
8F##	[8a#	.
=18	=18	=18
4G#	8a#]	4.b
.	8d#	.
8En	[8g#	.
4C#	8g#]	4.a#
.	8e#	.
8D#	8f##	.
=19	=19	=19
4E	8g#	8g#
.	8a#	8r
8E#	8b	8r
[4.F#	8a#	4.r
.	8dd#	.
.	8d#	.
=20	=20	=20
4.F#]	8g#	8r
.	8b	8r
.	8a#	8dd#
4.E#	8b	4dd#
.	8a#	.
.	8g#	8cc##
=21	=21	=21
4F#	8a#	4dd#
.	8b	.
8F##	8cc#	8r
[4.G#	8b	4.r
.	8ee	.
.	8g#	.
=22	=22	=22
4.G#]	8a#	4r
.	8cc#	.
.	8b	8ee
4.F##	8cc#	4dd#
.	8b	.
.	8a#	8cc#
=23	=23	=23
4.G#	8b	4b
.	8B	.
.	[8e	8g#
4.F#	8e]	4a#
.	8c#	.
.	8d#	8b#
=24	=24	=24
4.E	4.G#	8cc#
.	.	8g#
.	.	[8cc#
4.D#	4.r	8cc#]
.	.	8a#
.	.	8b#
=25	=25	=25
8C#	4r	4.ee
8G#	.	.
[8c#	8an	.
8c#]	4f#	[4.dd#
8A#	.	.
8B#	8g#	.
=26	=26	=26
4.c#	4.e	8dd#]
.	.	8cc#
.	.	[8aan
[4.Bn	4.d#	8aa]
.	.	8ff##
.	.	8gg#
=27	=27	=27
8B]	8e#	2.cc#
8A#	8f##	.
8G#	8g#	.
8F##	[4.a#	.
8A#	.	.
8D#	.	.
=28	=28	=28
4G#	8a#]	2.b
.	8g#	.
8GG#	8f#	.
[4.G#	8e#	.
.	8g#	.
.	8d#	.
=29	=29	=29
8G#]	8c##	[4.a#
8F#	8d#	.
8E#	8e#	.
8D#	[4.f#	4a#]
8F#	.	.
8AA#	.	8cc##
=30	=30	=30
2.BBT	8f#]	8dd#
.	8g#	8ee#
.	8a#	[8ff#
.	[4.g#	8ff#]
.	.	8ee#
.	.	8gg#
=31	=31	=31
2.AA#	4.g#]	8cc##
.	.	8ee#
.	.	8a#
.	8f#	[4.dd#
.	8a#	.
.	8d#	.
=32	=32	=32
2.r	8e#	4.dd#]
.	8f#	.
.	[8g#	.
.	8g#]	4.cc##
.	8a#	.
.	8e#	.
=33	=33	=33
8D#	8f#	4dd#
8E#	8e#	.
8F#	[8d#	8r
8E#	8d#]	4g#
8A#	8c##	.
8AA#	[8e#	8r
=34	=34	=34
8D#	8e#]	4f#
8F#	8d#	.
8E#	8c##	8r
8F#	4d#	4.r
8E#	.	.
8D#	8b	.
=35	=35	=35
8E#	4c#	2.r
8F#	.	.
8G#	8b	.
8F#	8a#	.
8B	8g#	.
8D#	8f#	.
=36	=36	=36
8E#	8g#	2.r
8G#	8B	.
8F#	8A#	.
8G#	8B	.
8F#	8g#	.
8E#	8B	.
=37	=37	=37
8F#	4A#	4.r
8En	.	.
8D#	8B#	.
8E	[4.c#	4r
8An	.	.
8C#	.	8e
=38	=38	=38
4D#	4.c#]	8f#
.	.	8an
8r	.	8g#
4GG#	4.B#	8a
.	.	8g#
8r	.	8f#
=39	=39	=39
8C#	4c#	8e
8E	.	16g#
.	.	16f#
8C#	8r	16g#
.	.	16a#
4G#	8r	[4.b
.	8d#	.
8F#	8g#	.
=40	=40	=40
8E	8c#	4.b]
8F#	8e	.
8G#	8d#	.
4C#	8e	4.a#
.	8d#	.
8F#	8c#	.
=41	=41	=41
8BB	4d#	4.b
8F#	.	.
[8B	8g#	.
8B]	4e#	4.cc#
8G#	.	.
[8A#	8f##	.
=42	=42	=42
8A#]	4.b	4.dd#
8D#	.	.
[8G#	.	.
8G#]	4.a#	8ee
8E#	.	8dd#
8F##	.	8cc#
=43	=43	=43
4G#	4d#	8b
.	.	8dd#
8A#	8c##	[8ff#
4B	4d#	8ff#]
.	.	8dd#
8C##	8g#	[8ee#
=44	=44	=44
4D#	4.f#	8ee#]
.	.	8a#
8BB	.	[8dd#
4GG#	4.e#	8dd#]
.	.	8b#
8AA#	.	8cc##
=45	=45	=45
4.D#	8d#	8dd#
.	8c##	8ee#
.	8B#	8ff#
4r	8c#	8ee#
.	[4f#	8aa#
8F#	.	8a#
=46	=46	=46
4.B	8f#]	8dd#
.	8d#	8ff#
.	8c##	8ee#
4r	8d#	8ff#
.	[4g#	8ee#
8B#	.	8dd#
=47	=47	=47
4c#	4g#]	8ee#
.	.	8ff#
8Bn	8e#	8gg#
4A#	8c#	8ff#
.	8d#	8bb
8An	8f#	8dd#
=48	=48	=48
8G#	4.b	8ee#
8B	.	8gg#
8D#	.	8ff#
8C##	[4.a#	8gg#
8AA#	.	8ff#
8C##	.	8ee#
=49	=49	=49
4D#	8a#]	4ff#
.	[4cc#	.
8r	.	8ff##
4GG#	8cc#]	4gg#
.	8a#	.
8r	8b#	8ff#
=50	=50	=50
4C#	8c#	4ee
.	[4bn	.
8r	.	8ee#
4FF#	8b]	4ff#
.	8g#	.
8r	8a#	8een
=51	=51	=51
8BB	4.b	4.dd#
8D#	.	.
[8G#	.	.
8G#]	[4.a#	[4.cc#
8F##	.	.
8A#	.	.
=52	=52	=52
4BB	8a#]	4cc#]
.	8d#	.
8r	8g#	[8b
4C#	[4.e	8b]
.	.	8a#
8r	.	8cc#
=53	=53	=53
4D#	8e]	4f##
.	8d#	.
8FF##	8c#	[8a#
4GG#	4.B	8a#]
.	.	8d#
8BB	.	[8g#
=54	=54	=54
8C#	8A#	4g#]
8E	8c#	.
8AA#	[8e	8cc#
4D#	8e]	4.f##
.	8d#	.
8DD#	8c#	.
=55	=55	=55
8GG#	8B	4g#
8AA#	8A#	.
8BB	[8G#	8d#
8AA#	4G#]	8c#
8D#	.	8B
8DD#	8F##	8A#
=56	=56	=56
8GG#	4G#	4B
8BB	.	.
8AA#	8d#	8r
8BB	[4.g#	4r
8AA#	.	.
8GG#	.	8b
=57	=57	=57
8AA#	4g#]	8cc#
8BB	.	8dd#
8C#	8f##	8ee
8BB	[4.g#	8dd#
8E	.	8cc#
8GG#	.	8b
=58	=58	=58
8AA#	4g#]	8cc#
8C#	.	[4a#
8BB	8g#	.
8C#	4f##	4a#]
8BB	.	.
8AA#	8r	8dd#
=59	=59	=59
8BB	4r	[2.dd#
8D#	.	.
8FF##	8a#	.
8GG#	4b	.
8BB	.	.
8DD#	8f##	.
=60	=60	=60
2.EET	8g#	4.dd#]
.	8a#	.
.	[8b	.
.	8b]	4.cc##
.	8a#	.
.	[8g#	.
=61	=61	=61
4DD#	8g#]	4dd#
.	8f##	.
8D#	8r	8dd#
8E#	4.r	4cc##
8G#	.	.
8F##	.	8cc#
=62	=62	=62
8G#	2.r	4b#
8D#	.	.
[8G#	.	8bn
8G#]	.	4a#
16F#	.	.
16E#	.	.
8F#	.	8b#
=63	=63	=63
8E#	2.r	4cc#
8A#	.	.
8G#	.	8cc##
8F#	.	[4.dd#
8B	.	.
8A#	.	.
=64	=64	=64
8G#	2.r	4.dd#]
8A#	.	.
8B	.	.
8E#	.	4.cc##T
8A#	.	.
8G#	.	.
=65	=65	=65
8F##	2.r	4dd#
8G#	.	.
8A#	.	8cc#
8D#	.	4b
8G#	.	.
8F#	.	8a#
=66	=66	=66
8E	4r	4g#
8F#	.	.
8E	8g#	[8cc#
8D#	4f##	8cc#]
8E	.	8a#
8D#	8f#	8b#
=67	=67	=67
4C#	4e#	8cc#
.	.	8g#
8CC#	8en	8a#
8GG#	4d#	8bn
8FF##	.	8cc#
8GG#	8e#	8b
=68	=68	=68
4DD#	4f#	8a#
.	.	8dd#
8r	8f##	8cc#
4.r	[4.g#	8b
.	.	8ee
.	.	8dd#
=69	=69	=69
2.r	4.g#]	8cc#
.	.	8dd#
.	.	8ee
.	4.f##T	8a#
.	.	8dd#
.	.	8cc#
=70	=70	=70
2.r	4g#	8b
.	.	8cc#
.	8f#	8dd#
.	4e	8g#
.	.	8cc#
.	8d#	8dd#
=71	=71	=71
4r	8c#	4.ee
.	8e	.
8c#	[8an	.
4B#	8a]	4.dd#
.	16g#	.
.	16f#	.
8Bn	[8g#	.
=72	=72	=72
4A#	8g#]	4.cc#
.	8c#	.
8An	[8f#	.
4G#	8f#]	8b
.	16e	4gg#
.	16d#	.
8A#	8e	.
=73	=73	=73
4B	8d#	8ff#
.	8g#	8ee
8B#	8f#	[8dd#
[4.c#	8e	8dd#]
.	8an	16cc#
.	.	16b#
.	8g#	8cc#
=74	=74	=74
4.c#]	8f#	[2.dd#
.	8g#	.
.	8an	.
4.B#	8d#	.
.	8g#	.
.	8f#	.
=75	=75	=75
4c#	[2.e	8dd#]
.	.	8g#
8Bn	.	[8cc#
4A#	.	8cc#]
.	.	16b
.	.	16a#
8G#	.	8b
=76	=76	=76
4F#	8e]	[2.a#
.	8c#	.
8E	[8f#	.
4D#	8f#]	.
.	16e	.
.	16d#	.
8C#	8e	.
=77	=77	=77
8BB	4.d#	4a#]
8F#	.	.
[8B	.	8g#
8B]	4.e	4.cc#
16A#	.	.
16G#	.	.
[8A#	.	.
=78	=78	=78
8A#]	4.d#	4.b
8D#	.	.
[8G#	.	.
8G#]	4.c#	[4.a#
16F##	.	.
16E#	.	.
8F##	.	.
=79	=79	=79
4G#	4B	8a#]
.	.	8g#
8En	[8c#	8gg#
4.D#	8c#]	4ff##
.	8A#	.
.	8B#	8ff#
=80	=80	=80
8A#	[4.c#	4ee#
8G#	.	.
8F##	.	8een
4G#	8c#]	4dd#
.	[4Bn	.
8C##	.	8ee#
=81	=81	=81
4D#	8B]	4ff#
.	4A#	.
8AA#	.	8ff##
4BB	8r	[4.gg#
.	8D#	.
8BB#	[8F#	.
=82	=82	=82
4C#	8F#]	4.gg#]
.	8E#	.
8C##	[8B	.
4D#	8B]	[4.ff##
.	16A#	.
.	16G#	.
8D##	16A#	.
.	16F##	.
=83	=83	=83
4.E#	4G#	8ff##]
.	.	8ee#
.	8B#	8ff##
8r	4e#	4gg#
8E#	.	.
8D#	8r	8gg##
=84	=84	=84
8C#	8r	[2.aa#
8c#	8a#	.
8B#	8b#	.
8A#	4cc#	.
8a#	.	.
8g#	8cc##	.
=85	=85	=85
8f#	[4.dd#	8aa#]
8d#	.	8ff#
8e#	.	8gg#
4f#	8dd#]	[4.aa#
.	8dd#	.
8f##	8cc#	.
=86	=86	=86
8g#	4b#	8aa#]
8G#	.	[4gg#
8A#	8cc#	.
4B	[4.dd#	8gg#]
.	.	8ee#
8B#	.	8ff#
=87	=87	=87
8c#	8dd#]	4ee#
8C#	[4cc#	.
8D#	.	8ff#
4E	8cc#]	[4.gg#
.	8a#	.
8E#	8b	.
=88	=88	=88
8F#	4a#	8gg#]
8FF#	.	[4ff#
8GG#	8b	.
4AAn	[4.cc#	8ff#]
.	.	8dd#
8AA#	.	8ee
=89	=89	=89
4BB	8cc#]	4dd#
.	8b	.
8C#	[8a#	8cc#
4D#	8a#]	4.b
.	8f#	.
8E#	[8g#	.
=90	=90	=90
4F#	8g#]	4a#
.	[4f#	.
8G#	.	8b#
4A#	4.f#_	16cc#
.	.	16dd#
.	.	8ee
8B#	.	8dd#
=91	=91	=91
8c#	8f#]	4.g#
8C#	8e#	.
8D#	8f##	.
4E#	16g#	[4.cc#
.	16a#	.
.	8b	.
8F##	8a#	.
=92	=92	=92
4G#	4.d#	8cc#]
.	.	8b
8A#	.	8cc#
16B	[4.g#	16dd#
16c#	.	16cc#
8d#	.	16b
.	.	16a#
8c#	.	16b
.	.	16ee
=93	=93	=93
[2.d#	8g#]	4a#
.	8f##	.
.	[8dd#	8r
.	8dd#]	4ee
.	[4cc#	.
.	.	8aa#
=94	=94	=94
2.d#_	8cc#]	4dd#
.	[4b	.
.	.	8gg#
.	8b]	8.cc#
.	[4a#	.
.	.	16ee
.	.	16dd#
.	.	16cc#
=95	=95	=95
4d#]	8a#]	[4.b
.	16g#	.
.	16f#	.
8r	16e	.
.	16d#	.
4.r	[4.c#	8b]
.	.	16a#
.	.	16g#
.	.	16f##
.	.	16e#
=96	=96	=96
2.r	4c#]	8d#
.	.	8dd#
.	8B	[8g#
.	16A#	8g#]
.	16G#	.
.	8A#	8f##
.	8D#	8cc#
=97	=97	=97
8GG#	4G#	4b
8AA#	.	.
8BB	8g#	8r
8AA#	4f##	4.r
8D#	.	.
8DD#	8f#	.
=98	=98	=98
8GG#	4e#	2.r
8BB	.	.
8AA#	8en	.
8BB	4d#	.
8AA#	.	.
8GG#	8e#	.
=99	=99	=99
8AA#	4f#	2.r
8BB	.	.
8C#	8f##	.
8BB	[4.g#	.
8E	.	.
8GG#	.	.
=100	=100	=100
8AA#	4.g#]	2.r
8C#	.	.
8BB	.	.
8C#	4.f##	.
8BB	.	.
8AA#	.	.
=101	=101	=101
8BB	8g#	2.r
8D#	8b	.
[8G#	8d#	.
8G#]	8e	.
16F##	8d#	.
16E#	.	.
8F##	8c#	.
=102	=102	=102
8G#	16B	2.r
.	16d#	.
8B	8g#	.
[8d#	8f#	.
8d#]	8e#	.
16c##	8a#	.
16B#	.	.
8c##	8g#	.
=103	=103	=103
4d#	4f#	8dd#
.	.	8ee#
8D#	8d#	8ff#
4A#	4c##	8ee#
.	.	8aa#
8F##	8c#	8a#
=104	=104	=104
4G#	4B#	8dd#
.	.	8ff#
8C##	8Bn	8ee#
4.D#	4A#	8ff#
.	.	8ee#
.	8B#	8dd#
=105	=105	=105
[4.A#	4c#	8ee#
.	.	8ff#
.	8c##	8gg#
8A#]	[4.d#	8ff#
8G#	.	8bb
8F#	.	8dd#
=106	=106	=106
4.G#	4.d#]	8ee#
.	.	8gg#
.	.	8ff#
4.A#	4.c##	8gg#
.	.	8ff#
.	.	8ee#
=107	=107	=107
4D#	8d#	4.ff#
.	8a#	.
8BB	[8dd#	.
4GG#	8dd#]	4ee#
.	16cc#	.
.	16b	.
8AA#	[8cc#	8een
=108	=108	=108
4BB	8cc#]	4.dd#
.	8f#	.
8D#	[8b	.
4E#	8b]	4cc##
.	16a#	.
.	16g#	.
8F##	8a#	8cc#
=109	=109	=109
4G#	4.b	8b
.	.	8dd#
8B	.	[8gg#
4c#	4a#	8gg#]
.	.	16ff#
.	.	16ee
8d#	8an	[8ff#
=110	=110	=110
4e	4.g#	8ff#]
.	.	8b
8c#	.	[8ee
4A#	4f##	8ee]
.	.	16dd#
.	.	16cc#
8B#	8f#	8dd#
=111	=111	=111
8c#	8e	8cc#
8B#	8f#	8dd#
8A#	8g#	8ee
8Bn	8f#	4dd#
8A#	8b	.
8G#	8B	8ddn
=112	=112	=112
4An	8e	4cc#
.	8g#	.
8D#	8f#	8ccn
4E	8g#	4b
.	8f#	.
8EE	8e	8cc#
=113	=113	=113
4BB	8f#	4ddn
.	8g#	.
8BB#	8an	8dd#
4C#	8g#	[4.ee
.	8cc#	.
8G#	8e	.
=114	=114	=114
4An	8f#	4.ee]
.	8an	.
8c#	8g#	.
4F#	8a	4.dd#
.	8g#	.
8B	8f#	.
=115	=115	=115
8E	4g#	4ee
8B	.	.
[8e	8g#	8g#
8e]	4f##	4a#
16d#	.	.
16c#	.	.
[8d#	8f#	8b#
=116	=116	=116
8d#]	4e#	4cc#
8G#	.	.
[8c#	8en	8an
8c#]	[4.d#	4f#
16B#	.	.
16A#	.	.
8B#	.	8g#
=117	=117	=117
8c#	8d#]	4e
8C#	8c#	.
8c#	[8an	8r
4B#	8a]	4.r
.	16g#	.
.	16f#	.
8Bn	[8g#	.
=118	=118	=118
4A#	8g#]	4.r
.	8c#	.
8An	[8f#	.
4G#	8f#]	4r
.	16e#	.
.	16d#	.
8c#	8e#	[8b
=119	=119	=119
8F#	[4.f#	8b]
8E	.	8a#
8D#	.	8b#
8C#	8f#]	[4.cc#
8BB	8e#	.
8AA#	8f##	.
=120	=120	=120
8GG#	[4.g#	8cc#]
8G#	.	8b#
8A#	.	8cc##
8B	8g#]	[4.dd#
8c#	8f##	.
8B	8g##	.
=121	=121	=121
8A#	[4.a#	8dd#]
8AA#	.	8cc##
8BB#	.	8dd#
8C##	4a#]	[4.ee#
8BB#	.	.
8C##	8g#	.
=122	=122	=122
8D#	8f#	8ee#]
8G#	8r	16dd#
.	.	16cc#
8F#	8r	[8dd#
8E#	4r	8dd#]
8A#	.	16cc#
.	.	16b
8G#	8a#	[8cc#
=123	=123	=123
8F##	[4.d#	8cc#]
8D#	.	8dd#
8F##	.	8cc#
[4.G#	8d#]	8b
.	8c#	8ee
.	8B	8dd#
=124	=124	=124
4.G#]	8A#	8cc#
.	8B	8dd#
.	8c#	8ee
4.F##	4d#	8a#
.	.	8dd#
.	8D#	8cc#
=125	=125	=125
4G#	8G#	4b
.	8A#	.
8GG#	8B	8r
4FF##	8A#	4.r
.	8d#	.
8FF#	8D#	.
=126	=126	=126
4EE#	8G#	4r
.	8B	.
8EEn	8A#	8c#
4DD#	8B	4f#
.	8A#	.
8EE#	8G#	[8g#
=127	=127	=127
4FF#	8A#	8g#]
.	8B	8f#
8FF##	8c#	8e
[4.GG#	8B	8d#
.	8e	8g#
.	8G#	8b
=128	=128	=128
4.GG#]	8A#	4.e#
.	8c#	.
.	8B	.
8FF##	8c#	[4.a#
8D#	8B	.
8C#	8A#	.
=129	=129	=129
8D#	4.B	4a#]
8C#	.	.
8BB	.	[8g#
8C#	8A#	4g#]
8BB	8d#	.
8AA#	8c#	8f##
=130	=130	=130
8BB	8d#	4g#
8AA#	8c#	.
8GG#	8B	8r
[4.D#	8c#	8r
.	8B	8dd#
.	8A#	8cc#
=131	=131	=131
4D#]	8B	8dd#
.	8A#	8cc#
8GG#	8G#	8b
[4.E	8A#	8cc#
.	8G#	8b
.	8F##	8a#
=132	=132	=132
8E]	[4.G#	[4.b
8D#	.	.
8C#	.	.
[4.D#	8G#]	8b]
.	8c#	8a#
.	8B	8g#
=133	=133	=133
2.D#_	8c#	[4.a#
.	8B	.
.	8A#	.
.	[4.B	8a#]
.	.	8g#
.	.	8f##
=134	=134	=134
8D#]	4.B]	[4.g#
8C#	.	.
8BB	.	.
8C#	4.A#	8g#]
8BB	.	8e#
8AA#	.	8f##
=135	=135	=135
8BB	4D#	8g#
16C#	.	8a#
16BB	.	.
16AA#	8g#	8b
16GG#	.	.
[4.DD#	4f##	8a#
.	.	8dd#
.	8f#	8d#
=136	=136	=136
4DD#]	4e#	8g#
.	.	8b
8CC#	8en	8a#
4GG#	4d#	8b
.	.	8a#
8CC#	8e#	8g#
=137	=137	=137
4FF#	4f#	8a#
.	.	8b
8DD#	8f##	8cc#
4GG#	[4.g#	8b
.	.	8ee
8BB	.	8g#
=138	=138	=138
4E	4.g#]	8a#
.	.	8cc#
8C#	.	8b
4AA#	4.f##	8cc#
.	.	8b
8D#	.	8a#
=139	=139	=139
4GG#	[2.g#	8b
.	.	8cc#
8BB	.	[8dd#
8EE	.	8dd#]
8E	.	8cc#
8D#	.	8b
=140	=140	=140
[4.C##	4.g#_	8a#
.	.	8ee#
.	.	8a#
8C##]	8g#]	[4.a#
8AA#	8f##	.
8BB#	8e#	.
=141	=141	=141
[4.C#	2.f##	8a#]
.	.	8een
.	.	8dd#
8C#]	.	[4.dd#
8BBn	.	.
8AA#	.	.
=142	=142	=142
8BB	[4.g#	8dd#]
8AA#	.	8cc#
8GG#	.	8b
4D#	4g#]	8cc#
.	.	8b
8DD#	8f##	8a#
=143	=143	=143
2.GG#	2.g#	2.g#
==	==	==
*-	*-	*-
!!!CDT: 1685/3/-1750/7/28
!!!OCY: Deutschland
!!!PPP: Leipzig
!!!ODT: 1738//-1742//
!!!PDT: 1739//-1742//
!!!AFR: fuga; fugue
!!!AST: polyphony
!!!AMT: compound duple
!!!SCA: Bach-Werke-Verzeichnis
!!!YOR: Bach Gesellschaft
!!!SMS: British Library, various
!!!AIN: cemba; clavi
!!!EEV: 1.0
!!!RDT: 1986 December 10
!!!YER: 1994 August 10
!!!EFL: 42/48
!!!VTS: 1366426865
